X: 28
T: Teetotaller 
T: Temperance
M: 4/4
L: 1/8
R: Reel
K: G
(3DEF|G2 GF GABc|d2 eB dBAc|BEED EFGA|BGAF GFED|
DGGF GABc|d2 eB dBAc|BEED EFGA|BcAF G2 :|
A|Beed e2 ef|geaf gfed|Bddc d2 de|fdaf gfed|
Beed e2 ef|geaf gfed|BEED EFGA|BcAF G3 :|
